X:1
T:Factum est silentium - Anerio
T:#
%%score [ 1 2 3 4 ]
L:1/8
Q:1/4=160
M:none
K:F
V:1 treble nm="Soprano" snm="S"
V:2 treble nm="Alto" snm="A"
V:3 treble-8 nm="Tenor" snm="T"
V:4 bass nm="Bass" snm="B"
V:1
"^Factum est silentium""^Felice Anerio\n(c. 1560-1614)" F12 F4 | F8 F8 | _E12 D4 | D8 D8 | %4
w: Fa- ctum|est si-|len- ti-|um in|
 (d6 c2 B8) | A8 G4 c2 =B2- |[M:4/2] B=B B2 c4 G4 A4 | A6 G2 F2 E2 (DEFG | ABcA B4) A4 A4 | %9
w: coe\- * *|lo, dum com- mit\-|* te- ret bel- lum dra-|co cum Mi- cha- e\- * * *|* * * * * le Ar-|
 G12 G4 | A8 z4 c4 | A4 F2 G2 A8 | z16 |:[M:3/1][Q:1/4=400] c12 c4 c8 | d12 d4 d8 | c12 c4 c8 | %16
w: chan- ge-|lo: Au-|di- ta est vox||mil- li- a|mil- li- um,|mil- li- a|
[M:3/1][Q:1/4=400][Q:1/4=400][Q:1/4=400][Q:1/4=400] c12 c4 c8 | B12 B4 B8 | A12 A4 A8 || %19
w: mil- li- um,|mil- li- a|mil- li- um,|
"^*1."[Q:1/4=160] G8 G8- | G4 E4 E8 | %21
w: di- cen\-|* ti- um:|
[M:4/2][Q:1/4=160][Q:1/4=160][Q:1/4=160][Q:1/4=160] z4 (c6 B2 B2 AG | A8) =B8 | z16 | %24
w: Sa\- * * * *|* lus,||
 z4 c4 c4 c4- | c4 d4 d2 c2 B2 B2 | A8 A8 | B2 BB A2 d2 d4 G2 GG | A2 c2 c4"^*2." G2 G2 A2 B2 | %29
w: et vir- tus|* o- mni- po- ten- ti|De- o.|Mil- li- a mil- li- um, mil- li- a|mil- li- um mi- ni- stra- bant|
 (c2 BA G4) A4 z2 A2 | d3 d d2 B2 d3 d d2 d2 | c2 B2 A3 A B8 | z2 G2 A3 A A2 A2 G2 F2 | %33
w: e\- * * * i et|de- ci- es, et de- ci- es cen-|te- na mil- li- a,|et de- ci- es cen- te- na|
 E3 E E2 D2 E3 E E2 c2 | c3 c c6 B2 A2 G2 | F4 A4 G8 | A8 A4 A4 | G4 (G8 ^F4) | G16 | c6 c2 |1 %40
w: mil- li- a, et de- ci- es, et|de- ci- es cen- te- na|mil- li- a|as- si- ste-|bant e\- *|i,|as- si-|
 B4 A4 c8 | c16 | z8 z4 A4 | F4 D2 E2 F8 :|2 %44
w: ste- bant e-|i.|Au-|di- ta est vox|
[Q:1/4=157] B4[Q:1/4=153] A4[Q:1/4=148] (c6[Q:1/4=145] B[Q:1/4=144]A ||2 %45
w: ste- bant e\- * *|
[Q:1/4=139] G8)[Q:1/4=136] !fermata!A16 |] %46
w: * i.|
V:2
 C12 C4 | C8 F,8 | G,12 B,4 | B,8 z4 D4- | D4 (F8 E4) | F8 E4 E2 D2- |[M:4/2] DD D2 E8 F4 | %7
w: Fa- ctum|est si-|len- ti-|um in|* coe\- *|lo, dum com- mit\-|* te- ret bel- lum|
 C4 C2 C2 D2 E2 F4- | F2 E2 D4 C8- | C8 C8 | C8 z4 C4 | D4 D2 E2 F8 | z16 |:[M:3/1] F12 F4 F8 | %14
w: dra- co cum Mi- cha- e\-|* le Ar- chan\-|* ge-|lo: Au-|di- ta est vox||mil- li- a|
 D12 B,4 B,8 | C12 F4 F8 |[M:3/1] E12 E4 E8 | D12 D4 D8 | D12 D4 D8 || D8 (=B,8- | B,4 C4) C8 | %21
w: mil- li- um,|mil- li- a|mil- li- um,|mil- li- a|mil- li- um,|di- cen-|ti\- * um:|
[M:4/2] (C6 D2 E2 D2 G4- | G2 ^FE F4) G8 | z16 | z4 E4 =F4 F4 | F8 F4 F2 G2- | G2 F2 E4 ^F8 | %27
w: Sa\- * * * *|* * * * lus,||et vir- tus|o- mni- po- ten\-|* ti De- o.|
 G2 GG ^F2 F2 G4 E2 EE | =F2 F2 E8 F2 D2 | F2 F2 E4 F8 | z2 D2 F6 F2 F4 | z4 z2 F,2 F3 F F2 F2 | %32
w: Mil- li- a mil- li- um, mil- li- a|mil- li- um mi- ni-|stra- bant e- i|et de- ci- es,|et de- ci- es cen-|
 E2 D2 C3 C C4 z2 D2 | G3 G G2 G2 G3 G G2 F2 | E6 D2 C8- | C4 F4 E8 | F12 F4 | E4 D4 D8 | D8 E8- | %39
w: te- na mil- li- a, et|de- ci- es, et de- ci- es cen-|te- na mil\-|* li- a|as- si-|ste- bant e-|i, as\-|
 E4 E4 |1 D4 D4 G,8 | A,16 | z8 z4 C4 | D4 B,2 C2 D8 :|2 D4 D4 (G,8 ||2 C8) !fermata!C16 |] %46
w: * si-|ste- bant e-|i.|Au-|di- ta est vox|ste- bant e\-|* i.|
V:3
 A12 A4 | A8 =B8 | c12 F4 | F4 F8 (f4- | f2 e2 d6 c2 B4) | c12 z4 | %6
w: Fa- ctum|est si-|len- ti-|um in coe\-||lo,|
[M:4/2][K:treble-8] G4 G2 c3 c C2 F4 | F2 A2 F2 G2 A2 A2 d4 | c4 G8 (F4- | F4 E2 D2 E4) E4 | F16 | %11
w: dum com- mit- te- ret bel-|lum dra- co cum Mi- cha- e-|le Ar- chan\-|* * * * ge-|lo:|
 z8 z4 c4 | A4 F2 G2 A8 |:[M:3/1] A12 A4 A8 | F12 F4 F8 | A12 A4 A8 | %16
w: Au-|di- ta est vox|mil- li- a|mil- li- um,|mil- li- a|
[M:3/1][K:treble-8] G12 G4 G8 | B12 B4 G8 | ^F12 F4 F8 || z4 =B4 d8- | d4 G4 G8- | %21
w: mil- li- um,|mil- li- a|mil- li- um,|di- cen\-|* ti- um:|
[M:4/2][K:treble-8] G8 z8 | z8 (G6 A2 | B2 A2 d6 ^c=B c4) | d4 G4 A8 | A4 B4 B2 c2 d4 | %26
w: |ho\- *||nor, et vir-|tus o- mni- po- ten-|
 ^c2 (d4 c2) d4 d2 dd | d2 G2 A4 =B2 BB c4- | c2 A2 G4 c2 B2 A2 G2 | F2 B,2 z4 z4 F4 | %30
w: ti De\- * o. Mil- li- a|mil- li- um, mil- li- a mil\-|* li- um mi- ni- stra- bant|e- i et|
 B3 B B2"^*3." f2 d3 d d4 | z4 c4 d3 d d2 d2 | c2 B2 A3 A A4 z2 F2 | c3 c c2 =B2 c3 c c2 A2 | %34
w: de- ci- es, et de- ci- es,|et de- ci- es cen-|te- na mil- li- a, et|de- ci- es, et de- ci- es cen-|
 G8 A8- | A4 c2 c2 c4 c4- | c4 A4 c4 d4 | (G2 A2 B2 G2 A8) | B4 G8 E4 | G4 A4 |1 %40
w: te- na|* mil- li- a as\-|* si- ste- bant|e\- * * * *|i, as- si-|ste- bant|
 (D2 E2 F2 D2 E2 F4 E2) | F8 z4 c4 | A4 F2 G2 A8 | z8 z8 :|2 (D2 E2 F8 E2 D2 ||2 %45
w: e- * * * * * *|i. Au-|di- ta est vox||e- * * * *|
 E8 !fermata!F16) |] %46
w: * i.|
V:4
 F,12 F,4 | F,8 D,8 | C,12 B,,4 | B,,8 B,,8 | (B,6 A,2 G,8) | F,8 C,4 C,2 G,2- | %6
w: Fa- ctum|est si-|len- ti-|um in|coe\- * *|lo, dum com- mit\-|
[M:4/2] G,G, G,,2 C,4 C,4 F,4 | F,6 E,2 D,2 C,2 B,,4 | F,,4 G,,4 (A,,6 B,,2 | C,12) C,4 | F,,16 | %11
w: * te- ret bel- lum dra-|co cum Mi- cha- e-|le Ar- chan\- *|* ge-|lo:|
 z8 z4 F,4 | F,4 D,2 E,2 F,8 |:[M:3/1] F,12 F,4 F,8 | B,,12 B,,4 B,,8 | F,12 F,4 F,8 | %16
w: Au-|di- ta est vox|mil- li- a|mil- li- um,|mil- li- a|
[M:3/1]"^*1. Source has rest and minim in repeat." C,12 C,4 C,8 | G,12 G,4 G,8 | D,12 D,4 D,8 || %19
w: mil- li- um,|mil- li- a|mil- li- um,|
 G,8 G,,8- | G,,4 C,4 C,8- |[M:4/2] C,8 z8 | z8 z4 (G,4- | G,2 F,2 F,2 E,D, E,8) | D,4 C,4 F,8 | %25
w: di- cen\-|* ti- um:||ho\-||nor, et vir-|
 F,4 B,,4 B,2 A,2 B,2 G,2 |"^*2. Source has A in repeat." A,8 D,8 | %27
w: tus o- mni- po- ten- ti|De- o.|
 G,2 G,G, D,2 D,2 G,,4 C,2 C,C, | F,,2 F,,2 C,8 F,2 G,2 | A,2 B,2 C4 F,8 | %30
w: Mil- li- a mil- li- um, mil- li- a|mil- li- um mi- ni-|stra- bant e- i|
"^*3. Source has D in repeat." z4 B,,4 B,3 B, B,2 B,2 | A,2 G,2 F,3 F, B,,8 | %32
w: et de- ci- es cen-|te- na mil- li- a,|
 C,4 F,3 F, F,2 F,2 E,2 D,2 | C,3 C, C,2 G,,2 C,3 C, C,2 F,,2 | C,3 C, C,2 B,,2 A,,2 G,,2 F,,4- | %35
w: et de- ci- es cen- te- na|mil- li- a, et de- ci- es, et|de- ci- es cen- te- na mil\-|
 F,,4 F,,4 C,8 | F,12 D,4 | E,4 G,4 D,8 | G,,8 C,8- | C,4 A,,4 |1 B,,4 D,4 C,8 | F,,8 z4 F,4 | %42
w: * li- a|as- si-|ste- bant e-|i, as\-|* si-|ste- bant e-|i. Au-|
 F,4 D,2 E,2 F,8 | z8 z8 :|2 B,,4 D,4 C,8- ||2 C,8 !fermata!F,,16 |] %46
w: di- ta est vox||ste- bant e\-|* i.|

